X:1
T:Title
%%score 1 2
L:1/8
Q:1/4=110
M:6/4
K:F
V:1 treble nm="Strings 1, Treble"
V:2 bass nm="Strings 1, Bass"
V:1
 [FA]4 [CG]2 [CF]4 [CF]2 | [DF]4 [B,D]2 [A,C]4 [FA]2 | [EG]4 [FA]2 [GB]4 [EG]2 | %3
w: 1.~Time~ e nough,~ the~|slug gard~ cries,~ He~|thinks~ the~ sea son's~|
 [FA]6- [FA]4 [Fc]2 | [FA]4 [CG]2 [CF]4 [CF]2 | [DF]4 [DF]2 [DF]4 [B,D]2 | %6
w: slow;~ * Yet~|time~ e nough,~ he~|hopes,~ and~ dies,~ And~|
 [A,C]4 [CF]2 [CG]4 [CG]2 |[M:4/4] [CF]8- | [CF]2 [CF]>[CF] [CF]3 [CF] | [DF]2 [DF]2 [CF]4- | %10
w: sinks~ to~ end less~|woe.~|||
 [CF]2 [Fc]>[Fc] [Fc]3 [FB] | [FA]2 [EG]2 [FA]4- | [FA]2 z2 [Fc]2 C>C | [CE]2 [CG]2 [CF]4- | %14
w: ||||
[M:6/4] [CF]2 z2 [FA]2- [FA]2 [CG]2 [CF]2- | [CF]2 [CF]2 [DF]2- [DF]2 [DF]2 [DF]2- | %16
w: ||
 [DF]2 z2 C2- C2 [CF]2 [CG]2- | [CG]2 [CG]2 [CF]2- [CF]6- | [CF]6 z6 |] %19
w: |||
V:2
 [F,C]4 [F,B,]2 [F,A,]4 [F,A,]2 | [B,,B,]4 [B,,F,]2 [F,,F,]4 [F,C]2 | [C,C]4 [C,C]2 [C,C]4 [C,C]2 | %3
 [F,C]6- [F,C]4 [F,A,]2 | [F,C]4 [F,B,]2 [F,A,]4 [A,,F,]2 | [B,,F,]4 [B,,B,]2 [B,,B,]4 [B,,F,]2 | %6
 [C,F,]4 [C,A,]2 [C,B,]4 [C,B,]2 |[M:4/4] [F,,F,A,]8- | [F,,F,A,]2 [F,A,]>[F,A,] [F,A,]3 [F,A,] | %9
 [B,,B,]2 [B,,B,]2 [F,A,]4- | [F,A,]2 [F,A,]>[F,A,] [F,A,]3 [F,D] | [F,C]2 [C,C]2 [F,C]4- | %12
 [F,C]2 z2 [F,A,]2 [F,A,]>[F,A,] | [C,B,]2 [C,B,]2 [F,,F,A,]4- | %14
[M:6/4] [F,,F,A,]2 z2 [F,C]2- [F,C]2 [F,B,]2 [F,A,]2- | %15
 [F,A,]2 [F,A,]2 [B,,B,]2- [B,,B,]2 [B,,B,]2 [B,,B,]2- | %16
 [B,,B,]2 z2 [F,A,]2- [F,A,]2 [F,A,]2 [C,B,]2- | [C,B,]2 [C,B,]2 [F,,F,A,]2- [F,,F,A,]6- | %18
 [F,,F,A,]6 z6 |] %19

